X:155
T:Mikey Buckley's Polka 
F:file ID: jol/155mikey
Z:bill@capeirish.com
B:JOL.148
Q:120
L:1/8
M:2/4
R:polka
K:D
E|FA dg|f/e/d/f/ e/d/B/A/|GB EF/E/|FA B/c/B/A/ |
FA dg|f/e/d/f/ e/B/d/B/|AF EF/E/|D2 D :|
g |f/e/d/f/ e/B/d/B/|Af dc/d/|cA G2|BA FD|
f/e/d/f/ e/B/d/B/|AF de/d/|cA GE|D2 D :|

